X:1
T:Bound for Greenland
M:4/4
L:1/4
K:G
 D| E E G A| B d e e| d e BA/2-B/2| d2 z| d| d e B3/2 B/2| A B DD/2-E/2|\
 G A E E| E2 z||
